X:66
T: Árva az a madár kinek párja nincsen
O: Lábnik (Bákó), 1932
Q: "Parlando"
L:1/4
K:C
d/d/c/B/A/B/ | d/c/B/A/ G/ HA3/2 | 
A/B/d/c/B/A/ | A/G/G/F/ HE HE | |
A/_B/B/A/G/F/ | G/A/G/F/ E<D | 
G/A/G/F/E/D/ | F/F/G/F/ HE HD |

